svgs/sharp-regular/gifts.svg

<svg xmlns="http://www.w3.org/2000/svg" viewBox="0 0 640 512"><!--! Font Awesome Pro 6.6.0 by @fontawesome - https://fontawesome.com License - https://fontawesome.com/license (Commercial License) Copyright 2024 Fonticons, Inc. --><path d="M200.4 40.6L209 18.3 164.3 1l-8.6 22.4L144.7 51.6 134.6 23.8 126.4 1.2 81.2 17.6l8.2 22.6 7.9 21.6L68.9 43.7 48.6 30.9 22.9 71.4 43.1 84.2 61.6 96 48 96 0 96l0 48L0 464l0 48 48 0 144 0 0-48L48 464l0-320 96 0c0 0 0 0 0 0l80 0 16 0 16.4 0c8.1-12.7 18.9-23.5 31.6-31.6L288 96l-48 0-13.6 0 18.5-11.8 20.2-12.9L239.4 30.9 219.1 43.7 192.7 60.6l7.7-19.9zM363.5 185.5L393.1 224 344 224c-13.3 0-24-10.7-24-24c0-13.1 10.8-24 24.2-24c7.6 0 14.7 3.5 19.3 9.5zM272 200c0 8.4 1.4 16.5 4.1 24l-4.1 0-48 0 0 48 0 192 0 48 48 0 320 0 48 0 0-48 0-192 0-48-48 0-4.1 0c2.7-7.5 4.1-15.6 4.1-24c0-39.9-32.5-72-72.2-72c-22.4 0-43.6 10.4-57.3 28.2L432 195.8l-30.5-39.6c-13.7-17.8-35-28.2-57.3-28.2c-39.7 0-72.2 32.1-72.2 72zm0 72l72 0 56 0 8 0 0 72-136 0 0-72zm0 120l136 0 0 72-136 0 0-72zm320 0l0 72-136 0 0-72 136 0zM456 344l0-72 8 0 56 0 72 0 0 72-136 0zm88-144c0 13.3-10.7 24-24 24l-49.1 0 29.6-38.5c4.6-5.9 11.7-9.5 19.3-9.5c13.4 0 24.2 10.9 24.2 24z"/></svg>

<svg xmlns="http://www.w3.org/2000/svg" viewBox="0 0 640 512"><!--! Font Awesome Pro 6.5.2 by @fontawesome - https://fontawesome.com License - https://fontawesome.com/license (Commercial License) Copyright 2024 Fonticons, Inc. --><path d="M200.4 40.6L209 18.3 164.3 1l-8.6 22.4L144.7 51.6 134.6 23.8 126.4 1.2 81.2 17.6l8.2 22.6 7.9 21.6L68.9 43.8 48.6 30.9 22.9 71.4 43.1 84.2 61.6 96H48 0v48V464v48H48 192V464H48V144h96c0 0 0 0 0 0h80 16 16.4c8.1-12.7 18.9-23.5 31.6-31.6V96H240 226.4l18.5-11.8 20.2-12.9L239.4 30.9 219.1 43.8 192.7 60.6l7.7-19.9zM363.5 185.5L393.1 224H344c-13.3 0-24-10.7-24-24c0-13.1 10.8-24 24.2-24c7.6 0 14.7 3.5 19.3 9.5zM272 200c0 8.4 1.4 16.5 4.1 24H272 224v48V464v48h48H592h48V464 272 224H592h-4.1c2.7-7.5 4.1-15.6 4.1-24c0-39.9-32.5-72-72.2-72c-22.4 0-43.6 10.4-57.3 28.2L432 195.8l-30.5-39.6c-13.7-17.8-35-28.2-57.3-28.2c-39.7 0-72.2 32.1-72.2 72zm0 72h72 56 8v72H272V272zm0 120H408v72H272V392zm320 0v72H456V392H592zM456 344V272h8 56 72v72H456zm88-144c0 13.3-10.7 24-24 24H470.9l29.6-38.5c4.6-5.9 11.7-9.5 19.3-9.5c13.4 0 24.2 10.9 24.2 24z"/></svg>
